X:1
T:Sir John Shaw Stewart's Strathspey
M:C
L:1/8
R:Strathspey
S:Gow – First Collection of Strathspey Reels (1784)
Z:AK/Fiddler’s Companion
K:G Minor
G|DGG>c (B/c/d) c>B|A>Fc>F d>Fc>F|D(GG>)c d>=efd|c<A f>A {A}G2G:||
A|G(gg>)a {ga}b2 ag|f>ca>c f>caf|dgg>a {ga}b2 ag|{g}f>d{d}c>A {A}G2 G>A|
Ggg>a {ga}b2 ag|fcf>g {fg}a>gfa|g>af>g d>fc>f|A>Fc>A {A}G2G||

